X: 1116
T: Amorous Lover, The
R: reel
M: 4/4
K: Amixolydian
A2cd eAcd|AccA B3c|AAcd eAcd|eAAG AGBG|
A2cd eage|AccA B3c|AAcd eAcd|eAAG A3G||
Agge gaaf|g3e dGBd|Agge gaaf|gedB AGBd|
Agge gaaf|g3e dGBd|Agge gaaf|gedB A3G||

